src/items/26-backpack.svg

<svg xmlns="http://www.w3.org/2000/svg" viewBox="0 0 48 48" width="96" height="96"><path fill="#C68632" d="M15 4h5v7h-5zm13 0h5v7h-5zm12 34.001c0 5-5 4.999-5 4.999s-5 .999-11 1-11-1-11-1-5 .001-5-4.999S11 15 12 13s2-2 2-2h20s1 0 2 2 4 20.001 4 25.001z"/><path fill="#995F1A" d="M35 19a2 2 0 01-2 2H15a2 2 0 01-2-2v-9h22v9zM24 44c3.349 0 6.694-.312 9-.587V31a2 2 0 00-2-2H17a2 2 0 00-2 2v12.331c2.003.292 5.31.669 9 .669zm17-4c0 2-3 3-6 3V31a2 2 0 012-2l2 .001c1.104 0 2 8.999 2 10.999zM7 40c0 2 3 3 6 3V31a2 2 0 00-2-2l-2 .001C7.896 29.001 7 38 7 40z"/><path fill="#FFC107" d="M24.223 34h-.445c-.982 0-1.778.896-1.778 2v1c0 1.104.796 2 1.777 2h.445c.982 0 1.778-.896 1.778-2v-1c0-1.104-.796-2-1.777-2zm-6-16h-.445c-.982 0-1.778.896-1.778 2v1c0 1.104.796 2 1.777 2h.445c.982 0 1.778-.896 1.778-2v-1c0-1.104-.796-2-1.777-2zm12 0h-.445c-.982 0-1.778.896-1.778 2v1c0 1.104.796 2 1.777 2h.445c.982 0 1.778-.896 1.778-2v-1c0-1.104-.796-2-1.777-2z"/><path fill="#56300D" d="M23.777 34h.445c.28 0 .542.079.777.209V29h-2v5.209c.237-.13.498-.209.778-.209zM23 36h2v5h-2zm-5.223-18h.445c.28 0 .542.08.777.209V10h-2v8.209c.237-.129.498-.209.778-.209zm12 0h.445c.28 0 .542.08.777.209V10h-2v8.209c.236-.129.498-.209.778-.209zM17 20h2v5h-2zm12 0h2v5h-2zm-8-10v-.309C21 8.892 22.232 8 24 8s3 .892 3 1.691V10h2v-.309C29 7.621 26.804 6 24 6s-5 1.621-5 3.691V10h2z"/></svg>

<svg xmlns="http://www.w3.org/2000/svg" viewBox="0 0 48 48" width="96px" height="96px"><path fill="#C68632" d="M15 4H20V11H15zM28 4H33V11H28zM40 38.001c0 5-5 4.999-5 4.999s-5 .999-11 1-11-1-11-1-5 .001-5-4.999S11 15 12 13s2-2 2-2h20c0 0 1 0 2 2S40 33.001 40 38.001z"/><path fill="#995F1A" d="M35 19c0 1.104-.896 2-2 2H15c-1.104 0-2-.896-2-2v-9h22V19zM24 44c3.349 0 6.694-.312 9-.587V31c0-1.104-.896-2-2-2H17c-1.104 0-2 .896-2 2v12.331C17.003 43.623 20.31 44 24 44zM41 40c0 2-3 3-6 3V31c0-1.104.896-2 2-2l2 .001C40.104 29.001 41 38 41 40zM7 40c0 2 3 3 6 3V31c0-1.104-.896-2-2-2l-2 .001C7.896 29.001 7 38 7 40z"/><g><path fill="#FFC107" d="M24.223 34h-.445C22.796 34 22 34.896 22 36v1c0 1.104.796 2 1.777 2h.445C25.204 39 26 38.104 26 37v-1C26 34.896 25.204 34 24.223 34L24.223 34zM18.223 18h-.445C16.796 18 16 18.896 16 20v1c0 1.104.796 2 1.777 2h.445C19.204 23 20 22.104 20 21v-1C20 18.896 19.204 18 18.223 18L18.223 18zM30.223 18h-.445C28.796 18 28 18.896 28 20v1c0 1.104.796 2 1.777 2h.445C31.204 23 32 22.104 32 21v-1C32 18.896 31.204 18 30.223 18L30.223 18z"/></g><g><path fill="#56300D" d="M23.777 34h.445c.28 0 .542.079.777.209V29h-2v5.209C23.236 34.079 23.497 34 23.777 34zM23 36H25V41H23zM17.777 18h.445c.28 0 .542.08.777.209V10h-2v8.209C17.236 18.08 17.497 18 17.777 18zM29.777 18h.445c.28 0 .542.08.777.209V10h-2v8.209C29.235 18.08 29.497 18 29.777 18zM17 20H19V25H17zM29 20H31V25H29zM21 10V9.691C21 8.892 22.232 8 24 8s3 .892 3 1.691V10h2V9.691C29 7.621 26.804 6 24 6s-5 1.621-5 3.691V10H21z"/></g></svg>
